dist/assets/img/logo-footer.svg

<svg width="130" height="75" viewBox="0 0 130 75" fill="none" xmlns="http://www.w3.org/2000/svg">
<g id="&#208;&#155;&#208;&#190;&#208;&#179;&#208;&#190;&#209;&#130;&#208;&#184;&#208;&#191;" clip-path="url(#clip0_3_20889)">
<g id="Group">
<path id="Vector" d="M0.64 61.9699H0V30.0199H0.59C1.93 30.0199 3.34 30.0099 4.83 29.9699C7.81 29.9099 9.33 29.8799 9.39 29.8799C15.6 29.8799 20.19 31.4599 23.17 34.6299C25.94 37.5799 27.32 41.2599 27.32 45.6699C27.32 50.4199 25.72 54.3399 22.53 57.4399C19.37 60.5099 14.86 62.0499 9.02 62.0499C7.8 62.0499 6.53 62.0299 5.19 61.9999C3.88 61.9699 2.36 61.9499 0.63 61.9499L0.64 61.9699ZM9.31 35.1399C8.12 35.1399 6.89 35.1899 5.61 35.2799V56.7299C7.01 56.7899 8.21 56.8199 9.22 56.8199C13.02 56.8199 16 55.8199 18.16 53.8099C20.32 51.7999 21.4 49.0899 21.4 45.6899C21.4 42.2899 20.33 39.8599 18.18 37.9799C16.04 36.0899 13.08 35.1499 9.3 35.1499L9.31 35.1399Z" fill="white"/>
<path id="Vector_2" d="M31.44 46C31.44 41.35 32.99 37.44 36.09 34.27C39.25 31.11 43.24 29.52 48.05 29.52C52.86 29.52 56.83 31.04 59.96 34.08C63.12 37.15 64.71 41.12 64.71 45.99C64.71 50.86 63.13 54.71 59.96 57.81C56.8 60.91 52.83 62.46 48.05 62.46C43.27 62.46 39.27 60.94 36.14 57.9C33.01 54.86 31.44 50.89 31.44 45.99V46ZM37.37 46C37.37 49.22 38.39 51.9 40.43 54.03C42.47 56.16 45.01 57.22 48.05 57.22C51.34 57.22 53.94 56.16 55.85 54.03C57.8 51.9 58.77 49.22 58.77 46C58.77 42.78 57.74 40.05 55.67 37.92C53.6 35.82 51.06 34.77 48.05 34.77C45.04 34.77 42.42 35.82 40.38 37.92C38.37 40.02 37.37 42.71 37.37 46Z" fill="white"/>
<path id="Vector_3" d="M76.8 61.97H71.19V30.02H76.85L87.76 44.94L98.16 30.02H103.45V61.96H97.88V38.87L87.8 53.06H86.98L76.8 39V61.95V61.97Z" fill="white"/>
</g>
<path id="Vector_4" d="M117 59.9502V70.1302H59.38V63.8302L54.69 65.7502V70.1302V74.8102H59.38H117H121.68V70.1302V59.9502H117Z" fill="url(#paint0_linear_3_20889)"/>
<path id="Vector_5" d="M129.69 43.41H121.83V37.43C121.83 36.93 121.42 36.52 120.92 36.52H117.61C117.11 36.52 116.7 36.93 116.7 37.43V43.41H110.73C110.23 43.41 109.82 43.82 109.82 44.32V47.57C109.82 48.07 110.23 48.48 110.73 48.48H116.7V54.5C116.7 55 117.11 55.41 117.61 55.41H120.92C121.42 55.41 121.83 55 121.83 54.5V48.48H126.81L129.69 43.42V43.41Z" fill="white"/>
<path id="Vector_6" d="M121.8 19.8002L88.22 0.120221C87.93 -0.0497786 87.56 -0.0497786 87.28 0.140221L54.69 20.4102V25.5402L59.37 27.1402V23.2802L87.14 5.76022C87.42 5.58022 87.79 5.57022 88.08 5.74022L117 22.4302V32.1702H121.68V20.0802H121.63L121.79 19.7902L121.8 19.8002Z" fill="url(#paint1_linear_3_20889)"/>
</g>
<defs>
<linearGradient id="paint0_linear_3_20889" x1="54.69" y1="67.3802" x2="121.68" y2="67.3802" gradientUnits="userSpaceOnUse">
<stop stop-color="#009EE3"/>
<stop offset="1" stop-color="#5EC1EA"/>
</linearGradient>
<linearGradient id="paint1_linear_3_20889" x1="54.69" y1="16.0902" x2="121.8" y2="16.0902" gradientUnits="userSpaceOnUse">
<stop stop-color="#009EE3"/>
<stop offset="1" stop-color="#5EC1EA"/>
</linearGradient>
<clipPath id="clip0_3_20889">
<rect width="129.69" height="74.81" fill="white"/>
</clipPath>
</defs>
</svg>

<svg width="130" height="75" fill="none" xmlns="http://www.w3.org/2000/svg"><g id="ÐÐ¾Ð³Ð¾ÑÐ¸Ð¿" clip-path="url(#clip0_3_20889)"><g id="Group" fill="#fff"><path id="Vector" d="M.64 61.97H0V30.02h.59c1.34 0 2.75-.01 4.24-.05 2.98-.06 4.5-.09 4.56-.09 6.21 0 10.8 1.58 13.78 4.75 2.77 2.95 4.15 6.63 4.15 11.04 0 4.75-1.6 8.67-4.79 11.77-3.16 3.07-7.67 4.61-13.51 4.61-1.22 0-2.49-.02-3.83-.05-1.31-.03-2.83-.05-4.56-.05l.01.02zm8.67-26.83c-1.19 0-2.42.05-3.7.14v21.45c1.4.06 2.6.09 3.61.09 3.8 0 6.78-1 8.94-3.01 2.16-2.01 3.24-4.72 3.24-8.12 0-3.4-1.07-5.83-3.22-7.71-2.14-1.89-5.1-2.83-8.88-2.83l.01-.01z"/><path id="Vector_2" d="M31.44 46c0-4.65 1.55-8.56 4.65-11.73 3.16-3.16 7.15-4.75 11.96-4.75 4.81 0 8.78 1.52 11.91 4.56 3.16 3.07 4.75 7.04 4.75 11.91s-1.58 8.72-4.75 11.82c-3.16 3.1-7.13 4.65-11.91 4.65s-8.78-1.52-11.91-4.56c-3.13-3.04-4.7-7.01-4.7-11.91V46zm5.93 0c0 3.22 1.02 5.9 3.06 8.03 2.04 2.13 4.58 3.19 7.62 3.19 3.29 0 5.89-1.06 7.8-3.19 1.95-2.13 2.92-4.81 2.92-8.03 0-3.22-1.03-5.95-3.1-8.08-2.07-2.1-4.61-3.15-7.62-3.15s-5.63 1.05-7.67 3.15c-2.01 2.1-3.01 4.79-3.01 8.08z"/><path id="Vector_3" d="M76.8 61.97h-5.61V30.02h5.66l10.91 14.92 10.4-14.92h5.29v31.94h-5.57V38.87L87.8 53.06h-.82L76.8 39v22.97z"/></g><path id="Vector_4" d="M117 59.95v10.18H59.38v-6.3l-4.69 1.92v9.06h66.99V59.95H117z" fill="url(#paint0_linear_3_20889)"/><path id="Vector_5" d="M129.69 43.41h-7.86v-5.98c0-.5-.41-.91-.91-.91h-3.31c-.5 0-.91.41-.91.91v5.98h-5.97c-.5 0-.91.41-.91.91v3.25c0 .5.41.91.91.91h5.97v6.02c0 .5.41.91.91.91h3.31c.5 0 .91-.41.91-.91v-6.02h4.98l2.88-5.06v-.01z" fill="#fff"/><path id="Vector_6" d="M121.8 19.8L88.22.12a.886.886 0 00-.94.02L54.69 20.41v5.13l4.68 1.6v-3.86L87.14 5.76c.28-.18.65-.19.94-.02L117 22.43v9.74h4.68V20.08h-.05l.16-.29.01.01z" fill="url(#paint1_linear_3_20889)"/></g><defs><linearGradient id="paint0_linear_3_20889" x1="54.69" y1="67.38" x2="121.68" y2="67.38" gradientUnits="userSpaceOnUse"><stop stop-color="#009EE3"/><stop offset="1" stop-color="#5EC1EA"/></linearGradient><linearGradient id="paint1_linear_3_20889" x1="54.69" y1="16.09" x2="121.8" y2="16.09" gradientUnits="userSpaceOnUse"><stop stop-color="#009EE3"/><stop offset="1" stop-color="#5EC1EA"/></linearGradient><clipPath id="clip0_3_20889"><path fill="#fff" d="M0 0h129.69v74.81H0z"/></clipPath></defs></svg>
